X: 33756
T: Rattlin' Bog, The
R: polka
M: 2/4
K: Dmajor
f2 f>e|dB B>B|Ad de|fe e2|
f2 f>e|dB B>B|Aa af|ed d2||
fd ed/e/|fd ed/e/|fa af|ed e2|
fd ed/e/|fd ed/e/|fa af|ed d2||

